svgs/light/ampersand.svg

<svg xmlns="http://www.w3.org/2000/svg" viewBox="0 0 384 512"><!-- Font Awesome Pro 6.0.0-alpha2 by @fontawesome - https://fontawesome.com License - https://fontawesome.com/license (Commercial License) --><path d="M379.524 452.906L308.129 378.721L381.118 274.203C386.18 266.969 384.399 256.984 377.149 251.922C369.993 246.906 359.962 248.609 354.868 255.891L285.506 355.213L170.403 235.609L240.277 180.25C260.432 164.375 271.995 140.703 271.995 115.312C271.995 69.375 233.902 32 187.059 32H132.935C86.092 32 47.999 69.375 47.999 115.312C47.999 140.125 57.436 163.859 74.686 182.312L122.904 232.406L38.718 299.109C14.125 318.516 0 347.391 0 378.328C0 434.391 46.53 480 103.748 480H170.309C212.308 480 251.558 459.734 275.276 425.766L289.449 405.469L356.462 475.094C359.618 478.359 363.805 480 367.993 480C371.993 480 375.993 478.516 379.086 475.531C385.461 469.406 385.649 459.266 379.524 452.906ZM97.904 160.281C86.342 147.953 79.998 131.969 79.998 115.313C79.998 87.016 103.748 64 132.935 64H187.059C216.246 64 239.995 87.016 239.995 115.312C239.995 130.828 232.871 145.344 220.433 155.141L148.091 212.453L97.904 160.281ZM249.026 407.453C231.308 432.844 201.871 448 170.309 448H103.748C64.186 448 31.999 416.75 31.999 378.328C31.999 357.25 41.655 337.531 58.561 324.219L145.185 255.578L266.827 381.963L249.026 407.453Z"/></svg>

<svg xmlns="http://www.w3.org/2000/svg" viewBox="0 0 384 512"><!--! Font Awesome Pro 6.3.0 by @fontawesome - https://fontawesome.com License - https://fontawesome.com/license (Commercial License) Copyright 2023 Fonticons, Inc. --><path d="M379.5 452.9l-71.4-74.19l72.99-104.5c5.062-7.234 3.281-17.22-3.969-22.28c-7.156-5.016-17.19-3.312-22.28 3.969l-69.36 99.32L170.4 235.6l69.87-55.36c20.16-15.88 31.72-39.55 31.72-64.94C271.1 69.38 233.9 32 187.1 32H132.9C86.09 32 47.1 69.38 47.1 115.3c0 24.81 9.437 48.55 26.69 67l48.22 50.09L38.72 299.1C14.12 318.5 0 347.4 0 378.3C0 434.4 46.48 480 103.7 480h66.61c41.1 0 81.25-20.27 104.1-54.23l14.17-20.3l67.01 69.63C359.6 478.4 363.8 480 367.1 480c3.1 0 7.1-1.484 11.09-4.469C385.5 469.4 385.6 459.3 379.5 452.9zM97.9 160.3c-11.56-12.33-17.91-28.31-17.91-44.97C79.1 87.02 103.7 64 132.9 64h54.12c29.19 0 52.94 23.02 52.94 51.31c0 15.52-7.125 30.03-19.56 39.83L148.1 212.5L97.9 160.3zM249 407.5C231.3 432.8 201.9 448 170.3 448H103.7c-39.56 0-71.75-31.25-71.75-69.67c0-21.08 9.656-40.8 26.56-54.11l86.62-68.64l121.6 126.4L249 407.5z"/></svg>
